X:1
T:Title
%%score 1 { 2 | 3 }
L:1/8
Q:1/4=97
M:3/4
K:Db
V:1 treble nm="Grand Piano, Soprano"
V:2 treble nm="Choir Pad, Grayton Beach, 76.76 D"
V:3 bass 
V:1
 [FA]2 [FA]3 [FA] | [GB][FA] [FA] [DF]3 | [FA]2 [EG]3 [EG] | [CA][EG] [DF]4 | [FA]2 [FA]3 [FA] | %5
w: By~John~Harrison~Tenney,~1894 * *|||||
 [GB][FA] [FA] [DF]3 | [Fd]2 [Ec]3 [EA] | [EB][Ec] [EA]4 | [EA]2 [Ge]3 [Fd] | [Ec][GB] [GB] [FA]3 | %10
w: |||||
 [FA]2 [GB]3 [Bd] | [Ac][GB] [FA]4 | [DF]2 [DF]3 [DF] | [CG][DA] [Dc] [DB]3 | [_Fd]2 [=Fd]3 [FA] | %15
w: |||||
 [EG][CE] D4- | D4 z2 |] %17
w: ||
V:2
 D2 D3 D | DD D A,3 | D2 C3 C | A,A, A,4 | D2 D3[K:treble] D | DD D A,3 | A,2 A,3 C | DE C4 | %8
 C2 C3 D | EC D D3 | D2 D3 D | DD D4 | A,2 A,3 A, | A,A, G, G,3 | B,2 A,3 A, | A,G, F,4- | %16
 F,4 z2 |] %17
V:3
 D,2 D,3 D, | D,D, D, D,3 | D,2 A,,3 A,, | A,,A,, D,4 | D,2 D,3 D, | D,D, D, D,3 | D,2 E,3 E, | %7
 E,E, A,,4 | A,2 A,3 A, | A,,A,, D, D,3 | D,2 G,3 G, | G,G, D,4 | D,2 D,3 D, | E,F, z2 z2 | %14
 =G,2 z2 z2 | A,,A,, D,4- | D,4 z2 |] %17

